images/services-construction.svg

<svg fill="none" height="234" viewBox="0 0 234 234" width="234" xmlns="http://www.w3.org/2000/svg"><g fill="#fece03"><path d="m27.9397 153.98c-6.5305 0-11.8435 5.317-11.8435 11.852 0 6.536 5.313 11.854 11.8435 11.854 6.5301 0 11.8435-5.318 11.8435-11.854 0-6.535-5.313-11.852-11.8435-11.852zm0 16.85c-2.7504 0-4.9876-2.242-4.9876-4.998 0-2.755 2.2376-4.996 4.9876-4.996s4.9876 2.241 4.9876 4.996c.0004 2.756-2.2376 4.998-4.9876 4.998z"/><path d="m75.3147 153.98c-6.5305 0-11.8435 5.317-11.8435 11.852 0 6.536 5.313 11.854 11.8435 11.854 6.5301 0 11.8435-5.318 11.8435-11.854-.0005-6.535-5.3134-11.852-11.8435-11.852zm0 16.85c-2.7504 0-4.9876-2.242-4.9876-4.998 0-2.755 2.2376-4.996 4.9876-4.996s4.9876 2.241 4.9876 4.996c0 2.756-2.2376 4.998-4.9876 4.998z"/><path d="m122.69 153.98c-6.53 0-11.844 5.317-11.844 11.852 0 6.536 5.313 11.854 11.844 11.854 6.53 0 11.843-5.318 11.843-11.854 0-6.535-5.313-11.852-11.843-11.852zm0 16.85c-2.75 0-4.988-2.242-4.988-4.998 0-2.755 2.238-4.996 4.988-4.996s4.987 2.241 4.987 4.996c0 2.756-2.237 4.998-4.987 4.998z"/><path d="m170.063 153.98c-6.53 0-11.843 5.317-11.843 11.852 0 6.536 5.313 11.854 11.843 11.854s11.844-5.318 11.844-11.854c0-6.535-5.314-11.852-11.844-11.852zm0 16.85c-2.75 0-4.987-2.242-4.987-4.998 0-2.755 2.237-4.996 4.987-4.996s4.988 2.241 4.988 4.996c0 2.756-2.238 4.998-4.988 4.998z"/><path d="m55.2959 162.405h-7.833c-1.893 0-3.4277 1.534-3.4277 3.427 0 1.894 1.5347 3.428 3.4277 3.428h7.833c1.8931 0 3.4278-1.534 3.4278-3.428 0-1.893-1.5347-3.427-3.4278-3.427z"/><path d="m102.918 162.405h-7.833c-1.8931 0-3.4278 1.534-3.4278 3.427 0 1.894 1.5347 3.428 3.4278 3.428h7.833c1.893 0 3.428-1.534 3.428-3.428 0-1.893-1.535-3.427-3.428-3.427z"/><path d="m150.541 162.405h-7.833c-1.893 0-3.428 1.534-3.428 3.427 0 1.894 1.535 3.428 3.428 3.428h7.833c1.893 0 3.428-1.534 3.428-3.428 0-1.893-1.535-3.427-3.428-3.427z"/><path d="m132.704 106.278c-1.703-.827-3.753-.115-4.58 1.589l-5.845 12.055c-.826 1.704-.115 3.754 1.588 4.58.482.234.992.345 1.494.345 1.272 0 2.494-.712 3.086-1.933l5.846-12.056c.826-1.704.114-3.754-1.589-4.58z"/><path d="m144.433 106.278c-1.703-.827-3.753-.115-4.58 1.589l-5.845 12.055c-.826 1.704-.115 3.754 1.588 4.58.482.234.992.345 1.494.345 1.272 0 2.494-.712 3.086-1.933l5.846-12.056c.826-1.704.114-3.754-1.589-4.58z"/><path d="m50.2142 117.989h-7.95c-1.8931 0-3.4278 1.535-3.4278 3.428 0 1.894 1.5347 3.428 3.4278 3.428h7.95c1.893 0 3.4278-1.534 3.4278-3.428.0004-1.893-1.5348-3.428-3.4278-3.428z"/></g><path d="m96.742 68.0611c-1.1486-2.4141-3.617-3.9735-6.2883-3.9735h-38.1384c-3.84 0-6.9642 3.1261-6.9642 6.9684v19.6405c0 1.3034.3638 2.5772 1.0521 3.6827l10.4678 16.8238c1.2801 2.057 3.4903 3.285 5.9122 3.285h44.1748c3.84 0 6.964-3.126 6.964-6.969v-1.769c0-1.03-.234-2.066-.676-2.995zm10.216 39.5699h-44.1748c-.0375 0-.0718-.019-.0919-.051l-10.4678-16.8232c-.011-.0178-.017-.0389-.017-.0608v-19.6405c0-.0626.0489-.1128.1088-.1128h38.1384c.042 0 .0795.0242.0978.063l16.5045 34.6943c.008.015.011.032.011.049v1.769c0 .063-.049.113-.109.113z" fill="#374a5c"/><path d="m233.055 181.454-7.772-12.573c-.995-1.61-3.108-2.109-4.718-1.114-1.61.996-2.109 3.108-1.113 4.718l7.062 11.424-30.429-7.183c.093-.203.174-.41.262-.615.036-.084.072-.167.107-.252.138-.328.268-.66.393-.993.036-.097.07-.194.106-.291.117-.327.229-.656.335-.988.034-.109.067-.22.1-.329.098-.325.192-.651.278-.98.032-.124.062-.249.092-.374.079-.319.155-.639.222-.961.03-.143.055-.288.083-.432.059-.309.118-.618.166-.929.027-.169.046-.341.069-.511.039-.291.081-.581.111-.874.023-.215.035-.434.052-.65.02-.253.045-.503.058-.757.02-.39.028-.783.031-1.177.001-.081.007-.162.007-.244 0-.002 0-.006 0-.008s0-.003 0-.005c0-.004-.001-.009-.001-.013 0-.421-.011-.847-.033-1.3-.006-.132-.017-.263-.025-.395l-.005-.068c-.009-.142-.022-.283-.033-.424-.04-.499-.092-.993-.159-1.484-.013-.096-.023-.192-.037-.29 0 0 0-.001-.001-.002-.026-.181-.058-.36-.088-.54l-.001-.008c-.041-.245-.084-.491-.132-.738-.001-.005-.002-.01-.004-.015-.032-.167-.068-.332-.104-.498-.004-.02-.008-.038-.012-.058-.052-.234-.105-.467-.161-.697-.004-.013-.007-.025-.01-.037-.04-.161-.081-.321-.124-.48-.005-.019-.009-.037-.014-.056-.061-.226-.125-.452-.191-.674-.009-.03-.019-.06-.027-.089-.042-.136-.083-.272-.126-.407-.008-.026-.016-.052-.024-.078-.07-.218-.143-.433-.219-.648-.019-.056-.04-.109-.059-.165-.037-.102-.072-.204-.11-.305-.012-.032-.023-.065-.035-.097-.078-.209-.161-.416-.246-.627l-.037-.092c-.031-.076-.064-.152-.095-.228-.017-.04-.032-.08-.049-.12-.018-.042-.034-.084-.052-.127-.073-.169-.149-.335-.226-.502l-.09-.198c-.071-.155-.142-.31-.214-.457-.071-.146-.144-.289-.219-.432l-.121-.237c-.08-.156-.161-.314-.241-.459-.05-.093-.102-.183-.155-.273l-.043-.075c-.28-.496-.58-.99-.893-1.47l-.037-.058c-.047-.074-.094-.148-.139-.215-.135-.203-.276-.402-.418-.6l-.119-.167c-.059-.085-.118-.169-.179-.251-.161-.219-.328-.433-.494-.644l-.058-.075c-.069-.09-.139-.179-.205-.26-.172-.212-.348-.42-.528-.629l-.045-.052c-.075-.087-.15-.175-.223-.257-.185-.21-.375-.415-.567-.619-.089-.094-.177-.188-.266-.279-.201-.207-.404-.41-.608-.607-.087-.084-.174-.168-.257-.245-.218-.206-.438-.409-.66-.604l-.228-.198c-.239-.207-.48-.41-.734-.615l-.165-.13c-.27-.214-.542-.424-.804-.616l-.064-.047c-1.329-.969-2.739-1.809-4.21-2.518-.012-.006-.024-.012-.037-.018-.762-.366-1.54-.697-2.334-.991-.114-.042-.23-.081-.345-.122-.161-.057-.321-.117-.483-.171-.015-.006-.056-.02-.071-.025-.079-.026-.162-.049-.242-.074-.186-.06-.374-.116-.562-.172-.102-.03-.2-.063-.304-.093l-.024-.007 5.541-23.559 27.855 45.062c.996 1.61 3.108 2.108 4.718 1.114 1.61-.996 2.109-3.108 1.114-4.718l-28.572-46.221c-1.344-2.174-3.843-3.315-6.362-2.902-2.522.41-4.53 2.283-5.115 4.771l-5.982 25.438c-.208-.004-.414-.016-.624-.016h-1.415v-33.658c0-6.4749-5.264-11.7436-11.735-11.7436h-34.454l-16.174-33.9985h10.49c2.985 0 5.415-2.4292 5.415-5.4154v-6.5081c0-2.9858-2.429-5.4154-5.415-5.4154h-58.6006c-1.893 0-3.4277 1.5343-3.4277 3.4277 0 1.8935 1.5347 3.4278 3.4277 3.4278h57.1596v3.6279h-14.476-66.4364-3.7312v-3.6279h13.678c1.8931 0 3.4278-1.5343 3.4278-3.4278 0-1.8934-1.5347-3.4277-3.4278-3.4277h-15.1186c-2.9862 0-5.4153 2.4291-5.4153 5.4154v6.5081c0 2.9858 2.4291 5.4154 5.4153 5.4154h1.7436v49.9011h-5.2878v-17.8961c0-2.5718-2.0923-4.6636-4.664-4.6636h-.0124v-7.9939c0-2.9922-2.4346-5.4268-5.4268-5.4268h-3.3011c-1.893 0-3.4277 1.5342-3.4277 3.4277s1.5347 3.4277 3.4277 3.4277h1.8725v6.5653h-.0124c-2.5717 0-4.664 2.0918-4.664 4.6636v17.8961h-.2756c-2.77096 0-5.02596 2.254-5.02596 5.025v26.302c0 2.391 1.67959 4.393 3.9195 4.9-5.72705 5.003-9.35634 12.356-9.35634 20.552 0 15.028 12.226 27.253 27.2532 27.253h144.0498c8.382 0 15.89-3.806 20.893-9.783l34.065 8.042c.484.114.971.169 1.453.169 1.992 0 3.893-.947 5.094-2.616 1.494-2.074 1.591-4.819.247-6.994zm-215.4611-88.5538h2.4972v15.6678h-2.4972zm-5.3011 22.5598h20.4407c3.505 0 6.3568-2.852 6.3568-6.357v-50.3992h60.8437l18.505 38.8984c.568 1.1942 1.773 1.9552 3.095 1.9552h36.619c2.69 0 4.879 2.1926 4.879 4.8876v33.658h-150.7392zm179.4062 49.962c0 .297-.009.592-.022.887-.005.108-.012.216-.019.324-.012.208-.028.416-.047.623-.01.112-.02.223-.032.333-.029.267-.062.533-.101.797-.01.068-.021.137-.032.205-.042.265-.089.527-.14.787-.021.102-.043.203-.065.305-.045.208-.092.415-.143.62-.024.096-.048.192-.073.287-.068.259-.141.516-.219.77-.01.034-.019.067-.029.1-.093.295-.192.588-.297.876-.023.063-.047.124-.071.186-.085.229-.175.456-.268.68-.031.074-.063.149-.094.222-.099.23-.203.458-.31.684-.024.051-.047.102-.071.153-.137.282-.28.561-.429.836-.003.005-.005.01-.008.014-.142.262-.292.52-.445.774-.037.061-.076.122-.113.183-.128.206-.258.41-.393.612-.039.058-.077.116-.116.174-3.676 5.383-9.861 8.926-16.859 8.926h-144.0498c-11.2475 0-20.39773-9.15-20.39773-20.424 0-11.247 9.15023-20.398 20.39773-20.398h144.0498c.983 0 1.948.074 2.894.209.124.018.248.036.368.056.222.035.443.075.663.118.112.022.221.044.328.067.194.042.387.087.58.134.166.04.328.082.488.125.239.065.477.13.712.203.021.007.04.013.061.019.262.083.521.172.778.265.062.021.124.042.186.065 4.268 1.58 7.866 4.552 10.246 8.364.09.144.178.289.265.436.951 1.611 1.69 3.362 2.172 5.217.007.028.015.057.022.085.074.287.14.577.201.87.009.042.018.084.026.126.057.281.107.565.152.85.009.052.017.102.025.152.042.279.076.561.107.844.007.058.014.115.02.174.025.254.043.51.059.766l.018.255c.017.338.025.678.025 1.02.001.015 0 .029 0 .044z" fill="#374a5c"/></svg>

<svg width="234" height="234" viewBox="0 0 234 234" fill="none" xmlns="http://www.w3.org/2000/svg">
<path d="M27.9397 153.98C21.4092 153.98 16.0962 159.297 16.0962 165.832C16.0962 172.368 21.4092 177.686 27.9397 177.686C34.4698 177.686 39.7832 172.368 39.7832 165.832C39.7832 159.297 34.4702 153.98 27.9397 153.98ZM27.9397 170.83C25.1893 170.83 22.9521 168.588 22.9521 165.832C22.9521 163.077 25.1897 160.836 27.9397 160.836C30.6897 160.836 32.9273 163.077 32.9273 165.832C32.9277 168.588 30.6897 170.83 27.9397 170.83Z" fill="#FECE03"/>
<path d="M75.3147 153.98C68.7842 153.98 63.4712 159.297 63.4712 165.832C63.4712 172.368 68.7842 177.686 75.3147 177.686C81.8448 177.686 87.1582 172.368 87.1582 165.832C87.1577 159.297 81.8448 153.98 75.3147 153.98ZM75.3147 170.83C72.5643 170.83 70.3271 168.588 70.3271 165.832C70.3271 163.077 72.5647 160.836 75.3147 160.836C78.0647 160.836 80.3023 163.077 80.3023 165.832C80.3023 168.588 78.0647 170.83 75.3147 170.83Z" fill="#FECE03"/>
<path d="M122.69 153.98C116.16 153.98 110.846 159.297 110.846 165.832C110.846 172.368 116.159 177.686 122.69 177.686C129.22 177.686 134.533 172.368 134.533 165.832C134.533 159.297 129.22 153.98 122.69 153.98ZM122.69 170.83C119.94 170.83 117.702 168.588 117.702 165.832C117.702 163.077 119.94 160.836 122.69 160.836C125.44 160.836 127.677 163.077 127.677 165.832C127.677 168.588 125.44 170.83 122.69 170.83Z" fill="#FECE03"/>
<path d="M170.063 153.98C163.533 153.98 158.22 159.297 158.22 165.832C158.22 172.368 163.533 177.686 170.063 177.686C176.593 177.686 181.907 172.368 181.907 165.832C181.907 159.297 176.593 153.98 170.063 153.98ZM170.063 170.83C167.313 170.83 165.076 168.588 165.076 165.832C165.076 163.077 167.313 160.836 170.063 160.836C172.813 160.836 175.051 163.077 175.051 165.832C175.051 168.588 172.813 170.83 170.063 170.83Z" fill="#FECE03"/>
<path d="M55.2959 162.405H47.4629C45.5699 162.405 44.0352 163.939 44.0352 165.832C44.0352 167.726 45.5699 169.26 47.4629 169.26H55.2959C57.189 169.26 58.7237 167.726 58.7237 165.832C58.7237 163.939 57.189 162.405 55.2959 162.405Z" fill="#FECE03"/>
<path d="M102.918 162.405H95.085C93.1919 162.405 91.6572 163.939 91.6572 165.832C91.6572 167.726 93.1919 169.26 95.085 169.26H102.918C104.811 169.26 106.346 167.726 106.346 165.832C106.346 163.939 104.811 162.405 102.918 162.405Z" fill="#FECE03"/>
<path d="M150.541 162.405H142.708C140.815 162.405 139.28 163.939 139.28 165.832C139.28 167.726 140.815 169.26 142.708 169.26H150.541C152.434 169.26 153.969 167.726 153.969 165.832C153.969 163.939 152.434 162.405 150.541 162.405Z" fill="#FECE03"/>
<path d="M132.704 106.278C131.001 105.451 128.951 106.163 128.124 107.867L122.279 119.922C121.453 121.626 122.164 123.676 123.867 124.502C124.349 124.736 124.859 124.847 125.361 124.847C126.633 124.847 127.855 124.135 128.447 122.914L134.293 110.858C135.119 109.154 134.407 107.104 132.704 106.278Z" fill="#FECE03"/>
<path d="M144.433 106.278C142.73 105.451 140.68 106.163 139.853 107.867L134.008 119.922C133.182 121.626 133.893 123.676 135.596 124.502C136.078 124.736 136.588 124.847 137.09 124.847C138.362 124.847 139.584 124.135 140.176 122.914L146.022 110.858C146.848 109.154 146.136 107.104 144.433 106.278Z" fill="#FECE03"/>
<path d="M50.2142 117.989H42.2642C40.3711 117.989 38.8364 119.524 38.8364 121.417C38.8364 123.311 40.3711 124.845 42.2642 124.845H50.2142C52.1072 124.845 53.642 123.311 53.642 121.417C53.6424 119.524 52.1072 117.989 50.2142 117.989Z" fill="#FECE03"/>
<path d="M96.742 68.0611C95.5934 65.647 93.125 64.0876 90.4537 64.0876H52.3153C48.4753 64.0876 45.3511 67.2137 45.3511 71.056V90.6965C45.3511 91.9999 45.7149 93.2737 46.4032 94.3792L56.871 111.203C58.1511 113.26 60.3613 114.488 62.7832 114.488H106.958C110.798 114.488 113.922 111.362 113.922 107.519V105.75C113.922 104.72 113.688 103.684 113.246 102.755L96.742 68.0611ZM106.958 107.631H62.7832C62.7457 107.631 62.7114 107.612 62.6913 107.58L52.2235 90.7568C52.2125 90.739 52.2065 90.7179 52.2065 90.696V71.0555C52.2065 70.9929 52.2554 70.9427 52.3153 70.9427H90.4537C90.4957 70.9427 90.5332 70.9669 90.5515 71.0057L107.056 105.7C107.064 105.715 107.067 105.732 107.067 105.749V107.518C107.067 107.581 107.018 107.631 106.958 107.631Z" fill="#374A5C"/>
<path d="M233.055 181.454L225.283 168.881C224.288 167.271 222.175 166.772 220.565 167.767C218.955 168.763 218.456 170.875 219.452 172.485L226.514 183.909L196.085 176.726C196.178 176.523 196.259 176.316 196.347 176.111C196.383 176.027 196.419 175.944 196.454 175.859C196.592 175.531 196.722 175.199 196.847 174.866C196.883 174.769 196.917 174.672 196.953 174.575C197.07 174.248 197.182 173.919 197.288 173.587C197.322 173.478 197.355 173.367 197.388 173.258C197.486 172.933 197.58 172.607 197.666 172.278C197.698 172.154 197.728 172.029 197.758 171.904C197.837 171.585 197.913 171.265 197.98 170.943C198.01 170.8 198.035 170.655 198.063 170.511C198.122 170.202 198.181 169.893 198.229 169.582C198.256 169.413 198.275 169.241 198.298 169.071C198.337 168.78 198.379 168.49 198.409 168.197C198.432 167.982 198.444 167.763 198.461 167.547C198.481 167.294 198.506 167.044 198.519 166.79C198.539 166.4 198.547 166.007 198.55 165.613C198.551 165.532 198.557 165.451 198.557 165.369C198.557 165.367 198.557 165.363 198.557 165.361C198.557 165.359 198.557 165.358 198.557 165.356C198.557 165.352 198.556 165.347 198.556 165.343C198.556 164.922 198.545 164.496 198.523 164.043C198.517 163.911 198.506 163.78 198.498 163.648L198.493 163.58C198.484 163.438 198.471 163.297 198.46 163.156C198.42 162.657 198.368 162.163 198.301 161.672C198.288 161.576 198.278 161.48 198.264 161.382C198.264 161.382 198.264 161.381 198.263 161.38C198.237 161.199 198.205 161.02 198.175 160.84L198.174 160.832C198.133 160.587 198.09 160.341 198.042 160.094C198.041 160.089 198.04 160.084 198.038 160.079C198.006 159.912 197.97 159.747 197.934 159.581C197.93 159.561 197.926 159.543 197.922 159.523C197.87 159.289 197.817 159.056 197.761 158.826C197.757 158.813 197.754 158.801 197.751 158.789C197.711 158.628 197.67 158.468 197.627 158.309C197.622 158.29 197.618 158.272 197.613 158.253C197.552 158.027 197.488 157.801 197.422 157.579C197.413 157.549 197.403 157.519 197.395 157.49C197.353 157.354 197.312 157.218 197.269 157.083C197.261 157.057 197.253 157.031 197.245 157.005C197.175 156.787 197.102 156.572 197.026 156.357C197.007 156.301 196.986 156.248 196.967 156.192C196.93 156.09 196.895 155.988 196.857 155.887C196.845 155.855 196.834 155.822 196.822 155.79C196.744 155.581 196.661 155.374 196.576 155.163L196.539 155.071C196.508 154.995 196.475 154.919 196.444 154.843C196.427 154.803 196.412 154.763 196.395 154.723C196.377 154.681 196.361 154.639 196.343 154.596C196.27 154.427 196.194 154.261 196.117 154.094L196.027 153.896C195.956 153.741 195.885 153.586 195.813 153.439C195.742 153.293 195.669 153.15 195.594 153.007L195.473 152.77C195.393 152.614 195.312 152.456 195.232 152.311C195.182 152.218 195.13 152.128 195.077 152.038L195.034 151.963C194.754 151.467 194.454 150.973 194.141 150.493L194.104 150.435C194.057 150.361 194.01 150.287 193.965 150.22C193.83 150.017 193.689 149.818 193.547 149.62L193.428 149.453C193.369 149.368 193.31 149.284 193.249 149.202C193.088 148.983 192.921 148.769 192.755 148.558L192.697 148.483C192.628 148.393 192.558 148.304 192.492 148.223C192.32 148.011 192.144 147.803 191.964 147.594L191.919 147.542C191.844 147.455 191.769 147.367 191.696 147.285C191.511 147.075 191.321 146.87 191.129 146.666C191.04 146.572 190.952 146.478 190.863 146.387C190.662 146.18 190.459 145.977 190.255 145.78C190.168 145.696 190.081 145.612 189.998 145.535C189.78 145.329 189.56 145.126 189.338 144.931L189.11 144.733C188.871 144.526 188.63 144.323 188.376 144.118L188.211 143.988C187.941 143.774 187.669 143.564 187.407 143.372L187.343 143.325C186.014 142.356 184.604 141.516 183.133 140.807C183.121 140.801 183.109 140.795 183.096 140.789C182.334 140.423 181.556 140.092 180.762 139.798C180.648 139.756 180.532 139.717 180.417 139.676C180.256 139.619 180.096 139.559 179.934 139.505C179.919 139.499 179.878 139.485 179.863 139.48C179.784 139.454 179.701 139.431 179.621 139.406C179.435 139.346 179.247 139.29 179.059 139.234C178.957 139.204 178.859 139.171 178.755 139.141L178.731 139.134L184.272 115.575L212.127 160.637C213.123 162.247 215.235 162.745 216.845 161.751C218.455 160.755 218.954 158.643 217.959 157.033L189.387 110.812C188.043 108.638 185.544 107.497 183.025 107.91C180.503 108.32 178.495 110.193 177.91 112.681L171.928 138.119C171.72 138.115 171.514 138.103 171.304 138.103H169.889V104.445C169.889 97.9701 164.625 92.7014 158.154 92.7014H123.7L107.526 58.7029H118.016C121.001 58.7029 123.431 56.2737 123.431 53.2875V46.7794C123.431 43.7936 121.002 41.364 118.016 41.364H59.4154C57.5224 41.364 55.9877 42.8983 55.9877 44.7917C55.9877 46.6852 57.5224 48.2195 59.4154 48.2195H116.575V51.8474H102.099H35.6626H31.9314V48.2195H45.6094C47.5025 48.2195 49.0372 46.6852 49.0372 44.7917C49.0372 42.8983 47.5025 41.364 45.6094 41.364H30.4908C27.5046 41.364 25.0755 43.7931 25.0755 46.7794V53.2875C25.0755 56.2733 27.5046 58.7029 30.4908 58.7029H32.2344V108.604H26.9466V90.7079C26.9466 88.1361 24.8543 86.0443 22.2826 86.0443H22.2702V78.0504C22.2702 75.0582 19.8356 72.6236 16.8434 72.6236H13.5423C11.6493 72.6236 10.1146 74.1578 10.1146 76.0513C10.1146 77.9448 11.6493 79.479 13.5423 79.479H15.4148V86.0443H15.4024C12.8307 86.0443 10.7384 88.1361 10.7384 90.7079V108.604H10.4628C7.69184 108.604 5.43684 110.858 5.43684 113.629V139.931C5.43684 142.322 7.11643 144.324 9.35634 144.831C3.62929 149.834 0 157.187 0 165.383C0 180.411 12.226 192.636 27.2532 192.636H171.303C179.685 192.636 187.193 188.83 192.196 182.853L226.261 190.895C226.745 191.009 227.232 191.064 227.714 191.064C229.706 191.064 231.607 190.117 232.808 188.448C234.302 186.374 234.399 183.629 233.055 181.454ZM17.5939 92.9002H20.0911V108.568H17.5939V92.9002ZM12.2928 115.46H32.7335C36.2385 115.46 39.0903 112.608 39.0903 109.103V58.7038H99.934L118.439 97.6022C119.007 98.7964 120.212 99.5574 121.534 99.5574H158.153C160.843 99.5574 163.032 101.75 163.032 104.445V138.103H12.2928V115.46ZM191.699 165.422C191.699 165.719 191.69 166.014 191.677 166.309C191.672 166.417 191.665 166.525 191.658 166.633C191.646 166.841 191.63 167.049 191.611 167.256C191.601 167.368 191.591 167.479 191.579 167.589C191.55 167.856 191.517 168.122 191.478 168.386C191.468 168.454 191.457 168.523 191.446 168.591C191.404 168.856 191.357 169.118 191.306 169.378C191.285 169.48 191.263 169.581 191.241 169.683C191.196 169.891 191.149 170.098 191.098 170.303C191.074 170.399 191.05 170.495 191.025 170.59C190.957 170.849 190.884 171.106 190.806 171.36C190.796 171.394 190.787 171.427 190.777 171.46C190.684 171.755 190.585 172.048 190.48 172.336C190.457 172.399 190.433 172.46 190.409 172.522C190.324 172.751 190.234 172.978 190.141 173.202C190.11 173.276 190.078 173.351 190.047 173.424C189.948 173.654 189.844 173.882 189.737 174.108C189.713 174.159 189.69 174.21 189.666 174.261C189.529 174.543 189.386 174.822 189.237 175.097C189.234 175.102 189.232 175.107 189.229 175.111C189.087 175.373 188.937 175.631 188.784 175.885C188.747 175.946 188.708 176.007 188.671 176.068C188.543 176.274 188.413 176.478 188.278 176.68C188.239 176.738 188.201 176.796 188.162 176.854C184.486 182.237 178.301 185.78 171.303 185.78H27.2532C16.0057 185.78 6.85547 176.63 6.85547 165.356C6.85547 154.109 16.0057 144.958 27.2532 144.958H171.303C172.286 144.958 173.251 145.032 174.197 145.167C174.321 145.185 174.445 145.203 174.565 145.223C174.787 145.258 175.008 145.298 175.228 145.341C175.34 145.363 175.449 145.385 175.556 145.408C175.75 145.45 175.943 145.495 176.136 145.542C176.302 145.582 176.464 145.624 176.624 145.667C176.863 145.732 177.101 145.797 177.336 145.87C177.357 145.877 177.376 145.883 177.397 145.889C177.659 145.972 177.918 146.061 178.175 146.154C178.237 146.175 178.299 146.196 178.361 146.219C182.629 147.799 186.227 150.771 188.607 154.583C188.697 154.727 188.785 154.872 188.872 155.019C189.823 156.63 190.562 158.381 191.044 160.236C191.051 160.264 191.059 160.293 191.066 160.321C191.14 160.608 191.206 160.898 191.267 161.191C191.276 161.233 191.285 161.275 191.293 161.317C191.35 161.598 191.4 161.882 191.445 162.167C191.454 162.219 191.462 162.269 191.47 162.319C191.512 162.598 191.546 162.88 191.577 163.163C191.584 163.221 191.591 163.278 191.597 163.337C191.622 163.591 191.64 163.847 191.656 164.103L191.674 164.358C191.691 164.696 191.699 165.036 191.699 165.378C191.7 165.393 191.699 165.407 191.699 165.422Z" fill="#374A5C"/>
</svg>
